; generated by PrusaSlicer 2.8.1+win64 on 2024-12-28 at 14:18:15 UTC


;
;
; 

; external perimeters extrusion width = 0.60mm
; perimeters extrusion width = 0.50mm
; infill extrusion width = 0.50mm
; solid infill extrusion width = 0.50mm
; top infill extrusion width = 0.45mm
; first layer extrusion width = 0.42mm

; external perimeters extrusion width = 0.60mm
; perimeters extrusion width = 0.50mm
; infill extrusion width = 0.50mm
; solid infill extrusion width = 0.50mm
; top infill extrusion width = 0.45mm
; first layer extrusion width = 0.42mm

; external perimeters extrusion width = 0.60mm
; perimeters extrusion width = 0.50mm
; infill extrusion width = 0.50mm
; solid infill extrusion width = 0.50mm
; top infill extrusion width = 0.45mm
; first layer extrusion width = 0.42mm

; external perimeters extrusion width = 0.60mm
; perimeters extrusion width = 0.50mm
; infill extrusion width = 0.50mm
; solid infill extrusion width = 0.50mm
; top infill extrusion width = 0.45mm
; first layer extrusion width = 0.42mm

; external perimeters extrusion width = 0.60mm
; perimeters extrusion width = 0.50mm
; infill extrusion width = 0.50mm
; solid infill extrusion width = 0.50mm
; top infill extrusion width = 0.45mm
; first layer extrusion width = 0.42mm

; external perimeters extrusion width = 0.60mm
; perimeters extrusion width = 0.50mm
; infill extrusion width = 0.50mm
; solid infill extrusion width = 0.50mm
; top infill extrusion width = 0.45mm
; first layer extrusion width = 0.42mm

; external perimeters extrusion width = 0.60mm
; perimeters extrusion width = 0.50mm
; infill extrusion width = 0.50mm
; solid infill extrusion width = 0.50mm
; top infill extrusion width = 0.45mm
; first layer extrusion width = 0.42mm

; external perimeters extrusion width = 0.60mm
; perimeters extrusion width = 0.50mm
; infill extrusion width = 0.50mm
; solid infill extrusion width = 0.50mm
; top infill extrusion width = 0.45mm
; first layer extrusion width = 0.42mm

; external perimeters extrusion width = 0.60mm
; perimeters extrusion width = 0.50mm
; infill extrusion width = 0.50mm
; solid infill extrusion width = 0.50mm
; top infill extrusion width = 0.45mm
; first layer extrusion width = 0.42mm

; external perimeters extrusion width = 0.60mm
; perimeters extrusion width = 0.50mm
; infill extrusion width = 0.50mm
; solid infill extrusion width = 0.50mm
; top infill extrusion width = 0.45mm
; first layer extrusion width = 0.42mm

; external perimeters extrusion width = 0.60mm
; perimeters extrusion width = 0.50mm
; infill extrusion width = 0.50mm
; solid infill extrusion width = 0.50mm
; top infill extrusion width = 0.45mm
; first layer extrusion width = 0.42mm

; external perimeters extrusion width = 0.60mm
; perimeters extrusion width = 0.50mm
; infill extrusion width = 0.50mm
; solid infill extrusion width = 0.50mm
; top infill extrusion width = 0.45mm
; first layer extrusion width = 0.42mm

; external perimeters extrusion width = 0.60mm
; perimeters extrusion width = 0.50mm
; infill extrusion width = 0.50mm
; solid infill extrusion width = 0.50mm
; top infill extrusion width = 0.45mm
; first layer extrusion width = 0.42mm

; external perimeters extrusion width = 0.60mm
; perimeters extrusion width = 0.50mm
; infill extrusion width = 0.50mm
; solid infill extrusion width = 0.50mm
; top infill extrusion width = 0.45mm
; first layer extrusion width = 0.42mm

; external perimeters extrusion width = 0.60mm
; perimeters extrusion width = 0.50mm
; infill extrusion width = 0.50mm
; solid infill extrusion width = 0.50mm
; top infill extrusion width = 0.45mm
; first layer extrusion width = 0.42mm

; external perimeters extrusion width = 0.60mm
; perimeters extrusion width = 0.50mm
; infill extrusion width = 0.50mm
; solid infill extrusion width = 0.50mm
; top infill extrusion width = 0.45mm
; first layer extrusion width = 0.42mm

M73 P0 R124
M73 Q0 S125
M201 X1000 Y1000 Z200 E5000 ; sets maximum accelerations, mm/sec^2
M203 X200 Y200 Z12 E120 ; sets maximum feedrates, mm / sec
M204 S1250 T1250 ; sets acceleration (S) and retract acceleration (R), mm/sec^2
M205 X8.00 Y8.00 Z0.40 E4.50 ; sets the jerk limits, mm/sec
M205 S0 T0 ; sets the minimum extruding and travel feed rate, mm/sec

; printing object baseplate.stl id:10 copy 0
; stop printing object baseplate.stl id:10 copy 0
; printing object baseplate.stl id:13 copy 0
; stop printing object baseplate.stl id:13 copy 0
; printing object baseplate.stl id:11 copy 0
; stop printing object baseplate.stl id:11 copy 0
; printing object baseplate.stl id:12 copy 0
; stop printing object baseplate.stl id:12 copy 0
; printing object baseplate.stl id:14 copy 0
; stop printing object baseplate.stl id:14 copy 0
; printing object baseplate.stl id:15 copy 0
; stop printing object baseplate.stl id:15 copy 0
; printing object baseplate.stl id:9 copy 0
; stop printing object baseplate.stl id:9 copy 0
; printing object baseplate.stl id:0 copy 0
; stop printing object baseplate.stl id:0 copy 0
; printing object baseplate.stl id:3 copy 0
; stop printing object baseplate.stl id:3 copy 0
; printing object baseplate.stl id:4 copy 0
; stop printing object baseplate.stl id:4 copy 0
; printing object baseplate.stl id:5 copy 0
; stop printing object baseplate.stl id:5 copy 0
; printing object baseplate.stl id:1 copy 0
; stop printing object baseplate.stl id:1 copy 0
; printing object baseplate.stl id:6 copy 0
; stop printing object baseplate.stl id:6 copy 0
; printing object baseplate.stl id:7 copy 0
; stop printing object baseplate.stl id:7 copy 0
; printing object baseplate.stl id:8 copy 0
; stop printing object baseplate.stl id:8 copy 0
; printing object baseplate.stl id:2 copy 0
; stop printing object baseplate.stl id:2 copy 0

;TYPE:Custom
M862.3 P "MK3S" ; printer model check
M862.1 P0.4 ; nozzle diameter check
M115 U3.14.0 ; tell printer latest fw version
G90 ; use absolute coordinates
M83 ; extruder relative mode
M104 S215 ; set extruder temp
M140 S60 ; set bed temp
M190 S60 ; wait for bed temp
M109 S215 ; wait for extruder temp
G28 W ; home all without mesh bed level
G80 X39.656 Y19.656 W170.688 H170.688 ; mesh bed levelling

G1 Z0.2 F720
G1 Y-3 F1000 ; go outside print area
G92 E0
G1 X60 E9 F1000 ; intro line
G1 X100 E12.5 F1000 ; intro line

G92 E0
M221 S95

; Don't change E values below. Excessive value can damage the printer.

M907 E538 ; set extruder motor current
G21 ; set units to millimeters
G90 ; use absolute coordinates
M83 ; use relative distances for extrusion

M900 K0.05 ; Filament gcode LA 1.5
M900 K30 ; Filament gcode LA 1.0




M107
;LAYER_CHANGE
;Z:0.2
;HEIGHT:0.2
G1 E-.8 F2100
G1 Z.6 F720
G1 X40.48 Y31.364 F10800
G1 Z.2 F720
G1 E.8 F2100
M204 S800
;TYPE:Skirt/Brim
;WIDTH:0.42
G1 F1200
G1 X51.272 Y20.491 E.48033
G1 X52.825 Y19.845 E.05274
G1 X197.175 Y19.845 E4.52599
G1 X198.728 Y20.491 E.05274
M73 Q0 S124
G1 X209.52 Y31.364 E.48033
G1 X210.155 Y32.905 E.05226
G1 X210.155 Y177.095 E4.52098
G1 X209.52 Y178.636 E.05226
G1 X198.728 Y189.509 E.48033
G1 X197.175 Y190.155 E.05274
G1 X52.905 Y190.155 E4.52348
G1 X51.364 Y189.52 E.05226
G1 X40.491 Y178.728 E.48033
G1 X39.845 Y177.175 E.05274
G1 X39.845 Y32.905 E4.52348
G1 X40.457 Y31.419 E.05039
M204 S1000
;WIPE_START
G1 F8640
G1 X40.48 Y31.364 E-.01377
G1 X42.879 Y28.947 E-.78623
;WIPE_END
G1 Z.6 F720
; printing object baseplate.stl id:7 copy 0
G1 X53.153 Y151.771 F10800
G1 Z.2 F720
G1 E.8 F2100
M204 S800
;TYPE:Perimeter
;WIDTH:0.419999
G1 F1200
G1 X67.82 Y151.771 E.45987
G1 X78.229 Y162.103 E.45985
G1 X78.229 Y169.475 E.23114
G1 X78.229 Y176.77 E.22873
G1 X67.897 Y187.18 E.45987
G1 X53.23 Y187.18 E.45987
G1 X42.82 Y176.847 E.45989
G1 X42.82 Y162.18 E.45987
G1 X53.111 Y151.813 E.45801
M204 S1000
G1 X53.111 Y151.813 F10800
G1 X52.996 Y151.393
M204 S800
;TYPE:External perimeter
G1 F1200
G1 X67.975 Y151.393 E.46966
G1 X78.607 Y161.946 E.46969
G1 X78.607 Y169.475 E.23607
G1 X78.607 Y176.926 E.23362
G1 X68.054 Y187.557 E.46967
G1 X53.074 Y187.557 E.46969
G1 X42.443 Y177.004 E.46967
G1 X42.443 Y162.025 E.46966
G1 X52.954 Y151.436 E.46781
M204 S1000
;WIPE_START
G1 F8640
G1 X52.996 Y151.393 E-.01388
G1 X56.401 Y151.393 E-.78612
;WIPE_END
G1 Z.6 F720
G1 X67.585 Y151.94 F10800
G1 Z.2 F720
G1 E.8 F2100
M204 S800
;TYPE:Solid infill
;WIDTH:0.421
G1 F1200
G1 X77.89 Y162.245 E.45815
G1 X77.89 Y162.78 E.01682
G1 X67.22 Y152.11 E.47438
G1 X66.686 Y152.11 E.01679
M73 P0 R123
G1 X77.89 Y163.314 E.49812
G1 X77.89 Y163.849 E.01682
G1 X66.151 Y152.11 E.52191
G1 X65.616 Y152.11 E.01682
G1 X77.89 Y164.384 E.54569
G1 X77.89 Y164.918 E.01679
G1 X65.082 Y152.11 E.56943
G1 X64.547 Y152.11 E.01682
G1 X77.89 Y165.453 E.59322
G1 X77.89 Y165.988 E.01682
G1 X64.012 Y152.11 E.61701
G1 X63.478 Y152.11 E.01679
G1 X77.89 Y166.522 E.64075
G1 X77.89 Y167.057 E.01682
G1 X62.943 Y152.11 E.66453
G1 X62.408 Y152.11 E.01682
G1 X77.89 Y167.592 E.68832
G1 X77.89 Y168.126 E.01679
G1 X61.874 Y152.11 E.71206
G1 X61.339 Y152.11 E.01682
G1 X77.89 Y168.661 E.73585
G1 X77.89 Y169.196 E.01682
G1 X60.804 Y152.11 E.75963
G1 X60.269 Y152.11 E.01682
G1 X77.89 Y169.731 E.78342
G1 X77.89 Y170.265 E.01679
G1 X59.735 Y152.11 E.80716
G1 X59.2 Y152.11 E.01682
G1 X77.89 Y170.8 E.83094
G1 X77.89 Y171.335 E.01682
G1 X58.665 Y152.11 E.85473
G1 X58.131 Y152.11 E.01679
G1 X77.89 Y171.869 E.87847
G1 X77.89 Y172.404 E.01682
M73 Q0 S123
G1 X57.596 Y152.11 E.90226
G1 X57.061 Y152.11 E.01682
M73 P1 R123
M73 Q1 S123
G1 X77.89 Y172.939 E.92604
G1 X77.89 Y173.473 E.01679
G1 X56.527 Y152.11 E.94978
G1 X55.992 Y152.11 E.01682
G1 X77.89 Y174.008 E.97357
G1 X77.89 Y174.543 E.01682
G1 X55.457 Y152.11 E.99736
G1 X54.923 Y152.11 E.01679
G1 X77.89 Y175.077 E1.0211
G1 X77.89 Y175.612 E.01682
G1 X54.388 Y152.11 E1.04488
G1 X53.853 Y152.11 E.01682
G1 X77.89 Y176.147 E1.06867
G1 X77.89 Y176.63 E.01518
G1 X77.865 Y176.656 E.00113
G1 X53.319 Y152.11 E1.0913
G1 X53.294 Y152.11 E.00079
G1 X53.04 Y152.366 E.01134
G1 X77.598 Y176.924 E1.09183
G1 X77.332 Y177.193 E.01189
G1 X52.774 Y152.634 E1.09185
G1 X52.507 Y152.903 E.01192
G1 X77.066 Y177.461 E1.09185
G1 X76.799 Y177.729 E.01189
G1 X52.241 Y153.171 E1.09183
G1 X51.975 Y153.439 E.01187
G1 X76.533 Y177.998 E1.09185
G1 X76.267 Y178.266 E.01187
G1 X51.708 Y153.708 E1.09185
G1 X51.442 Y153.976 E.01187
G1 X76 Y178.534 E1.09183
G1 X75.734 Y178.803 E.01189
G1 X51.176 Y154.244 E1.09185
G1 X50.909 Y154.513 E.01192
G1 X75.468 Y179.071 E1.09185
G1 X75.201 Y179.339 E.01189
G1 X50.643 Y154.781 E1.09183
G1 X50.376 Y155.049 E.01189
G1 X74.935 Y179.608 E1.09188
G1 X74.668 Y179.876 E.01189
G1 X50.11 Y155.318 E1.09183
G1 X49.844 Y155.586 E.01187
G1 X74.402 Y180.144 E1.09183
G1 X74.136 Y180.413 E.01189
G1 X49.577 Y155.854 E1.09188
G1 X49.311 Y156.123 E.01189
G1 X73.869 Y180.681 E1.09183
G1 X73.603 Y180.949 E.01187
M73 P1 R122
G1 X49.045 Y156.391 E1.09183
G1 X48.778 Y156.659 E.01189
G1 X73.337 Y181.218 E1.09188
G1 X73.07 Y181.486 E.01189
G1 X48.512 Y156.928 E1.09183
G1 X48.246 Y157.196 E.01187
G1 X72.804 Y181.754 E1.09183
G1 X72.538 Y182.023 E.01189
G1 X47.979 Y157.464 E1.09188
G1 X47.713 Y157.733 E.01189
G1 X72.271 Y182.291 E1.09183
G1 X72.005 Y182.559 E.01187
G1 X47.447 Y158.001 E1.09183
G1 X47.18 Y158.269 E.01189
G1 X71.739 Y182.828 E1.09188
G1 X71.472 Y183.096 E.01189
G1 X46.914 Y158.538 E1.09183
G1 X46.648 Y158.806 E.01187
G1 X71.206 Y183.364 E1.09183
G1 X70.94 Y183.633 E.01189
G1 X46.381 Y159.074 E1.09188
G1 X46.115 Y159.343 E.01189
M73 Q1 S122
G1 X70.673 Y183.901 E1.09183
G1 X70.407 Y184.169 E.01187
G1 X45.848 Y159.611 E1.09185
G1 X45.582 Y159.879 E.01187
G1 X70.14 Y184.438 E1.09185
G1 X69.874 Y184.706 E.01187
G1 X45.316 Y160.148 E1.09183
G1 X45.049 Y160.416 E.01189
G1 X69.608 Y184.974 E1.09185
G1 X69.341 Y185.243 E.01192
G1 X44.783 Y160.684 E1.09185
G1 X44.517 Y160.953 E.01189
G1 X69.075 Y185.511 E1.09183
G1 X68.809 Y185.779 E.01187
G1 X44.25 Y161.221 E1.09185
G1 X43.984 Y161.489 E.01187
G1 X68.542 Y186.048 E1.09185
G1 X68.276 Y186.316 E.01187
M73 P2 R122
M73 Q2 S122
G1 X43.718 Y161.758 E1.09183
G1 X43.451 Y162.026 E.01189
G1 X68.01 Y186.584 E1.09185
G1 X67.755 Y186.84 E.01136
G1 X67.731 Y186.84 E.00075
G1 X43.185 Y162.294 E1.0913
G1 X43.16 Y162.32 E.00113
G1 X43.16 Y162.804 E.01522
G1 X67.196 Y186.84 E1.06862
G1 X66.662 Y186.84 E.01679
G1 X43.16 Y163.338 E1.04488
G1 X43.16 Y163.873 E.01682
G1 X66.127 Y186.84 E1.0211
G1 X65.592 Y186.84 E.01682
G1 X43.16 Y164.408 E.99731
G1 X43.16 Y164.942 E.01679
G1 X65.058 Y186.84 E.97357
G1 X64.523 Y186.84 E.01682
G1 X43.16 Y165.477 E.94978
G1 X43.16 Y166.012 E.01682
G1 X63.988 Y186.84 E.926
G1 X63.454 Y186.84 E.01679
G1 X43.16 Y166.546 E.90226
G1 X43.16 Y167.081 E.01682
G1 X62.919 Y186.84 E.87847
G1 X62.384 Y186.84 E.01682
G1 X43.16 Y167.616 E.85469
G1 X43.16 Y168.151 E.01682
G1 X61.849 Y186.84 E.8309
G1 X61.315 Y186.84 E.01679
G1 X43.16 Y168.685 E.80716
G1 X43.16 Y169.22 E.01682
G1 X60.78 Y186.84 E.78337
G1 X60.245 Y186.84 E.01682
M73 P2 R121
G1 X43.16 Y169.755 E.75959
G1 X43.16 Y170.289 E.01679
G1 X59.711 Y186.84 E.73585
G1 X59.176 Y186.84 E.01682
G1 X43.16 Y170.824 E.71206
G1 X43.16 Y171.359 E.01682
G1 X58.641 Y186.84 E.68827
G1 X58.107 Y186.84 E.01679
G1 X43.16 Y171.893 E.66453
G1 X43.16 Y172.428 E.01682
G1 X57.572 Y186.84 E.64075
G1 X57.037 Y186.84 E.01682
G1 X43.16 Y172.963 E.61696
G1 X43.16 Y173.497 E.01679
G1 X56.503 Y186.84 E.59322
G1 X55.968 Y186.84 E.01682
G1 X43.16 Y174.032 E.56943
G1 X43.16 Y174.567 E.01682
G1 X55.433 Y186.84 E.54565
G1 X54.899 Y186.84 E.01679
G1 X43.16 Y175.101 E.52191
G1 X43.16 Y175.636 E.01682
G1 X54.364 Y186.84 E.49812
G1 X53.829 Y186.84 E.01682
G1 X43.16 Y176.171 E.47434
G1 X43.16 Y176.706 E.01682
G1 X53.464 Y187.01 E.45811
M204 S1000
;WIPE_START
G1 F8640
G1 X51.014 Y184.56 E-.8
;WIPE_END
G1 Z.6 F720
; stop printing object baseplate.stl id:7 copy 0
; printing object baseplate.stl id:5 copy 0
G1 X110.88 Y187.18 F10800
G1 Z.2 F720
G1 E.8 F2100
M204 S800
;TYPE:Perimeter
;WIDTH:0.419999
G1 F1200
G1 X96.213 Y187.18 E.45987
G1 X85.804 Y176.847 E.45987
G1 X85.804 Y162.18 E.45987
G1 X96.136 Y151.771 E.45985
G1 X110.803 Y151.771 E.45987
G1 X121.213 Y162.103 E.45987
M73 Q2 S121
G1 X121.213 Y169.475 E.23114
G1 X121.213 Y176.77 E.22873
G1 X110.922 Y187.137 E.45801
M204 S1000
G1 X110.922 Y187.137 F10800
G1 X111.037 Y187.557
M204 S800
;TYPE:External perimeter
G1 F1200
G1 X96.058 Y187.557 E.46966
G1 X85.427 Y177.004 E.46967
G1 X85.427 Y162.025 E.46966
G1 X95.979 Y151.393 E.46967
G1 X110.959 Y151.393 E.46969
G1 X121.59 Y161.946 E.46967
G1 X121.59 Y169.475 E.23607
G1 X121.59 Y176.926 E.23362
G1 X111.079 Y187.514 E.46778
M204 S1000
;WIPE_START
G1 F8640
G1 X111.037 Y187.557 E-.01388
G1 X107.632 Y187.557 E-.78612
;WIPE_END
G1 Z.6 F720
G1 X110.569 Y151.94 F10800
G1 Z.2 F720
G1 E.8 F2100
M204 S800
;TYPE:Solid infill
;WIDTH:0.421
G1 F1200
G1 X120.874 Y162.245 E.45815
G1 X120.874 Y162.78 E.01682
G1 X110.204 Y152.11 E.47438
G1 X109.669 Y152.11 E.01682
G1 X120.874 Y163.314 E.49814
G1 X120.874 Y163.849 E.01682
G1 X109.134 Y152.11 E.52193
G1 X108.6 Y152.11 E.01679
G1 X120.874 Y164.384 E.54569
G1 X120.874 Y164.918 E.01679
G1 X108.065 Y152.11 E.56946
G1 X107.53 Y152.11 E.01682
G1 X120.874 Y165.453 E.59324
G1 X120.874 Y165.988 E.01682
G1 X106.996 Y152.11 E.61701
G1 X106.461 Y152.11 E.01682
G1 X120.874 Y166.522 E.64077
G1 X120.874 Y167.057 E.01682
G1 X105.926 Y152.11 E.66456
G1 X105.392 Y152.11 E.01679
G1 X120.874 Y167.592 E.68832
G1 X120.874 Y168.126 E.01679
G1 X104.857 Y152.11 E.71208
G1 X104.322 Y152.11 E.01682
G1 X120.874 Y168.661 E.73587
G1 X120.874 Y169.196 E.01682
G1 X103.788 Y152.11 E.75963
G1 X103.253 Y152.11 E.01682
G1 X120.874 Y169.731 E.78342
G1 X120.874 Y170.265 E.01679
G1 X102.718 Y152.11 E.80718
G1 X102.184 Y152.11 E.01679
G1 X120.874 Y170.8 E.83094
G1 X120.874 Y171.335 E.01682
G1 X101.649 Y152.11 E.85473
G1 X101.114 Y152.11 E.01682
G1 X120.874 Y171.869 E.87849
G1 X120.874 Y172.404 E.01682
G1 X100.579 Y152.11 E.90228
G1 X100.045 Y152.11 E.01679
M73 P3 R121
M73 Q3 S121
G1 X120.874 Y172.939 E.92604
G1 X120.874 Y173.473 E.01679
G1 X99.51 Y152.11 E.94981
G1 X98.975 Y152.11 E.01682
G1 X120.874 Y174.008 E.97359
